!!!OTL: Der Markgraf von Backenweil.
!!!OTL-incipit: Nun hoeret an und schweiget still,
!!!ARE: Europa, Mitteleuropa, Deutschland / France, Lothringen, Kreis
!!    Saargemuend, Gebenhausen
!!!YOR: 1, S. 122
!!    1913 aufgezeichnet
!!!SCT: Q0013
!!!TXL: @@DE
!!!YEM: Copyright 1995, estate of Helmut Schaffrath.
**kern	**text
*ICvox	*
!! Irregular meter.
*MX	*
*k[b-]	*
*F:	*
!LO:TX:a:t=Langſam erʒählend; frei im Takt.	!
{4c	1._Nun
=1:	=1:
4f	hö-
4e	-ret
4f	an
8gL	und
8aJ	.
=2:	=2:
4b-	ſchweiget
4a	.
4g}	ſtill,
{8aL	was
8gJ	.
=3:	=3:
4f	ich
4c	euch
4f	ſin-
4f	-gen
8gL	und
8aJ	.
=4:	=4:
4b-	ſa-
4a	-gen
4g	will
4r}	.
{(4.cc	von
8b-)	.
=5:	=5:
4a	ei-
4g	-nem
4f	ar-
4f	-men
(<4g	Graf
4b-)	.
=6:	=6:
(2a	Ba-
2g)	.
4f	-ken
4r}	.
{2g	Er
=7:	=7:
(6f	iſt
6e)	.
6d	ge-
6.c	-ʒo-
12d	-gen
12c	in
12c	den
=8:	=8:
6f	un-
6g	-ga-
12a	-ri-
12f	-ſchen
4g	Krieg,
4r}	.
{4.cc	von
8b-	den
=9:	=9:
4a	Tür-
4g	-ken
4f	wird
4f	er
8gL	ge-
8b-J	.
=10:	=10:
(2a	-fan-
2g)	.
4f	-gen.
4r}	.
==	==
!!!AGN: Ballade, Krieg, Gefangenschaft, Ehe, Heimkehr
!! Kleinere Melodievarianten aus anderen Quellen abgedruckt.
!!!ONB: ESAC (Essen Associative Code) Database: BALLADE
!!!AMT: irregular
!!!AIN: vox
!!!EED: Helmut Schaffrath
!!!EEV: 1.0
!!@@COMMENT:"Vorgeſungen: Papa Gerne, Gebenhauſen, Kr. Saargemünd 1913.
!!Mel. A S2580 (Cb u. c). Text: A86868 (Ca)."
!!@@END:
!!!source: Deutsche Volkslieder mit ihren Melodien. Balladen. Herausgegeben vom Deutschen Volksliedarchiv. Erster Band Balladen. Berlin und Leipzig 1935.
!!!page: 122
!!!ENC: Anna Maria Matuszewska
!!!EEV: 2025/02/13
*-	*-
